Yaru++/actions/16/package-installed-locked.svg

<svg height="16" width="16" xmlns="http://www.w3.org/2000/svg"><g fill="#1d99f3" transform="translate(-212.00006 -280)"><path d="m5.3261719 0c-1.67759.0195-2.9064963-.04015813-3.9101563.51367188-.50182998.27685999-.89762747.74519812-1.11718748 1.33007812-.21956.58488-.29882812 1.27944-.29882812 2.15625v8c0 .87681.07924813 1.57137.29882812 2.15625.21956001.58488.61535751 1.053218 1.11718748 1.330078 1.00366.55376 2.2325663.494242 3.9101563.513672h.0039062 5.3398439.003906c1.67759-.0195 2.904543.040158 3.908203-.513672.50183-.27686.897628-.745198 1.117188-1.330078.21998-.58488.300781-1.27944.300781-2.15625v-8c0-.87681-.079248-1.57136-.298828-2.15625-.21955-.58488-.615358-1.05319812-1.117188-1.33007812-1.00366-.55379-2.232556-.49431188-3.910156-.51367188h-.003906-2.0039064-3.3359375zm2.6738281 3a2.8571428 2.8571428 0 0 1 2.857422 2.8574219v1.4277343h.714844v5.7148438h-7.1445316v-5.7148438h.7148437v-1.4277343a2.8571428 2.8571428 0 0 1 2.8574219-2.8574219zm0 .7148438c-1.1928571 0-2.1425781.9497209-2.1425781 2.1425781v1.4277343h4.2851561v-1.4277343c0-1.1928572-.9497209-2.1425781-2.142578-2.1425781z" fill="#1d99f3" transform="translate(212.00006 280)"/><path d="m5.3261719 0c-1.67759.0195-2.9064963-.04015813-3.9101563.51367188-.50182995.27685999-.89762746.74519812-1.11718748 1.33007812-.21955999.58488-.29882812 1.27944-.29882812 2.15625v.5c0-.87681.07926812-1.57137.29882812-2.15625.21956001-.58488.6153575-1.0532181 1.11718748-1.3300781 1.00366-.55387003 2.2325663-.4941719 3.9101563-.5136719h.00391 3.3359375 2.0039064.0039c1.6776.01936 2.906496-.0401181 3.910156.5136719.50183.27688.897638.7451981 1.117188 1.3300781.2195322.58489.2988302 1.27944.2988302 2.15625v-.5c0-.87681-.079248-1.57136-.298828-2.15625-.21955-.58488-.615358-1.05319813-1.117188-1.33007812-1.00366-.55379001-2.232556-.49431188-3.910156-.51367188h-.0039-2.0039064-3.3359375z" fill="#fff" opacity=".3" transform="translate(212.00006 280)"/><path d="m222.67398 296c1.67759-.0195 2.90649.0402 3.91015-.51367.50183-.27685.89763-.7452 1.11719-1.33008.21956-.58487.29883-1.27944.29883-2.15625v-.5c0 .87681-.0793 1.57138-.29883 2.15625-.21956.58488-.61536 1.05323-1.11719 1.33008-1.00366.55387-2.23256.49418-3.91015.51367h-.004-3.33594-2.00391-.004c-1.6776-.0194-2.90649.0401-3.91015-.51367-.50183-.27688-.89764-.7452-1.11719-1.33008-.21953-.58489-.29883-1.27944-.29883-2.15625v.5c0 .87681.0793 1.57136.29883 2.15625.21955.58488.61536 1.0532 1.11719 1.33008 1.00366.5538 2.23255.49431 3.91015.51367h.004 2.00391 3.33594z" fill="#0d0000" opacity=".2"/></g></svg>

<?xml version="1.0" encoding="UTF-8" standalone="no"?>
<svg
   xmlns:dc="http://purl.org/dc/elements/1.1/"
   xmlns:cc="http://creativecommons.org/ns#"
   xmlns:rdf="http://www.w3.org/1999/02/22-rdf-syntax-ns#"
   xmlns:svg="http://www.w3.org/2000/svg"
   xmlns="http://www.w3.org/2000/svg"
   xmlns:sodipodi="http://sodipodi.sourceforge.net/DTD/sodipodi-0.dtd"
   xmlns:inkscape="http://www.inkscape.org/namespaces/inkscape"
   width="16"
   height="16"
   version="1.1"
   id="svg10"
   sodipodi:docname="package-installed-locked.svg"
   inkscape:version="0.92.4 (5da689c313, 2019-01-14)">
  <metadata
     id="metadata16">
    <rdf:RDF>
      <cc:Work
         rdf:about="">
        <dc:format>image/svg+xml</dc:format>
        <dc:type
           rdf:resource="http://purl.org/dc/dcmitype/StillImage" />
      </cc:Work>
    </rdf:RDF>
  </metadata>
  <defs
     id="defs14" />
  <sodipodi:namedview
     pagecolor="#ffffff"
     bordercolor="#808080"
     borderopacity="1"
     objecttolerance="10"
     gridtolerance="10"
     guidetolerance="10"
     inkscape:pageopacity="0"
     inkscape:pageshadow="2"
     inkscape:window-width="1920"
     inkscape:window-height="1016"
     id="namedview12"
     showgrid="false"
     inkscape:zoom="52.4375"
     inkscape:cx="8"
     inkscape:cy="8"
     inkscape:window-x="0"
     inkscape:window-y="27"
     inkscape:window-maximized="1"
     inkscape:current-layer="g8" />
  <g
     transform="translate(-212.00006,-280)"
     id="g8"
     style="fill:#1d99f3;fill-opacity:1">
    <path
       style="fill:#1d99f3;fill-opacity:1"
       d="M 5.3261719 0 C 3.6485819 0.0195 2.4196756 -0.040158125 1.4160156 0.51367188 C 0.91418562 0.79053187 0.51838813 1.25887 0.29882812 1.84375 C 0.079268125 2.42863 0 3.12319 0 4 L 0 12 C 0 12.87681 0.079248125 13.57137 0.29882812 14.15625 C 0.51838813 14.74113 0.91418563 15.209468 1.4160156 15.486328 C 2.4196756 16.040088 3.6485819 15.98057 5.3261719 16 L 5.3300781 16 L 10.669922 16 L 10.673828 16 C 12.351418 15.9805 13.578371 16.040158 14.582031 15.486328 C 15.083861 15.209468 15.479659 14.74113 15.699219 14.15625 C 15.919199 13.57137 16 12.87681 16 12 L 16 4 C 16 3.12319 15.920752 2.42864 15.701172 1.84375 C 15.481622 1.25887 15.085814 0.79055188 14.583984 0.51367188 C 13.580324 -0.040118125 12.351428 0.01936 10.673828 0 L 10.669922 0 L 8.6660156 0 L 5.3300781 0 L 5.3261719 0 z M 8 3 A 2.8571428 2.8571428 0 0 1 10.857422 5.8574219 L 10.857422 7.2851562 L 11.572266 7.2851562 L 11.572266 13 L 4.4277344 13 L 4.4277344 7.2851562 L 5.1425781 7.2851562 L 5.1425781 5.8574219 A 2.8571428 2.8571428 0 0 1 8 3 z M 8 3.7148438 C 6.8071429 3.7148438 5.8574219 4.6645647 5.8574219 5.8574219 L 5.8574219 7.2851562 L 10.142578 7.2851562 L 10.142578 5.8574219 C 10.142578 4.6645647 9.1928571 3.7148438 8 3.7148438 z "
       transform="translate(212.00006,280)"
       id="path2" />
    <g
       style="fill:#1d99f3;fill-opacity:1"
       transform="matrix(0.71428571,0,0,0.71428571,-594.99994,330.14286)"
       id="g6" />
    <path
       style="fill:#ffffff;fill-opacity:1;opacity:0.3"
       d="M 5.3261719,0 C 3.6485819,0.0195 2.4196756,-0.04015813 1.4160156,0.51367188 0.91418565,0.79053187 0.51838814,1.25887 0.29882812,1.84375 0.07926813,2.42863 0,3.12319 0,4 V 4.5 C 0,3.62319 0.07926812,2.92863 0.29882812,2.34375 0.51838813,1.75887 0.91418562,1.2905319 1.4160156,1.0136719 2.4196756,0.45980187 3.6485819,0.5195 5.3261719,0.5 h 0.00391 3.3359375 2.0039064 0.0039 c 1.6776,0.01936 2.906496,-0.0401181 3.910156,0.5136719 0.50183,0.27688 0.897638,0.7451981 1.117188,1.3300781 C 15.920702,2.92864 16,3.62319 16,4.5 V 4 C 16,3.12319 15.920752,2.42864 15.701172,1.84375 15.481622,1.25887 15.085814,0.79055187 14.583984,0.51367188 13.580324,-0.04011813 12.351428,0.01936 10.673828,0 h -0.0039 -2.0039064 -3.3359375 z"
       transform="translate(212.00006,280)"
       id="path816"
       inkscape:connector-curvature="0"
       sodipodi:nodetypes="ccsscscccccccccsccccccc" />
    <path
       sodipodi:nodetypes="ccsscscccccccccsccccccc"
       inkscape:connector-curvature="0"
       id="path821"
       d="m 222.67398,296 c 1.67759,-0.0195 2.90649,0.0402 3.91015,-0.51367 0.50183,-0.27685 0.89763,-0.7452 1.11719,-1.33008 0.21956,-0.58487 0.29883,-1.27944 0.29883,-2.15625 v -0.5 c 0,0.87681 -0.0793,1.57138 -0.29883,2.15625 -0.21956,0.58488 -0.61536,1.05323 -1.11719,1.33008 -1.00366,0.55387 -2.23256,0.49418 -3.91015,0.51367 h -0.004 -3.33594 -2.00391 -0.004 c -1.6776,-0.0194 -2.90649,0.0401 -3.91015,-0.51367 -0.50183,-0.27688 -0.89764,-0.7452 -1.11719,-1.33008 -0.21953,-0.58489 -0.29883,-1.27944 -0.29883,-2.15625 v 0.5 c 0,0.87681 0.0793,1.57136 0.29883,2.15625 0.21955,0.58488 0.61536,1.0532 1.11719,1.33008 1.00366,0.5538 2.23255,0.49431 3.91015,0.51367 h 0.004 2.00391 3.33594 z"
       style="opacity:0.2;fill:#0d0000;fill-opacity:1" />
  </g>
</svg>
